svg/fluentui-system-icons/ic_fluent_book_letter_24_regular.svg

<svg width="24" height="24" viewBox="0 0 24 24" fill="none" xmlns="http://www.w3.org/2000/svg">
<path d="M12.5 6C12.1948 6 11.92 6.18495 11.8052 6.46772L8.55517 14.4677C8.39926 14.8515 8.58398 15.2889 8.96773 15.4448C9.35149 15.6007 9.78896 15.416 9.94487 15.0323L10.7705 13H14.2296L15.0552 15.0323C15.2111 15.416 15.6485 15.6007 16.0323 15.4448C16.4161 15.2889 16.6008 14.8515 16.4449 14.4677L13.1949 6.46772C13.08 6.18495 12.8052 6 12.5 6ZM11.3799 11.5L12.5 8.74268L13.6202 11.5H11.3799ZM4 4.5C4 3.11929 5.11929 2 6.5 2H18C19.3807 2 20.5 3.11929 20.5 4.5V18.75C20.5 19.1642 20.1642 19.5 19.75 19.5H5.5C5.5 20.0523 5.94772 20.5 6.5 20.5H19.75C20.1642 20.5 20.5 20.8358 20.5 21.25C20.5 21.6642 20.1642 22 19.75 22H6.5C5.11929 22 4 20.8807 4 19.5V4.5ZM5.5 18H19V4.5C19 3.94772 18.5523 3.5 18 3.5H6.5C5.94772 3.5 5.5 3.94772 5.5 4.5V18Z" fill="#212121"/>
</svg>

<svg xmlns="http://www.w3.org/2000/svg" width="24" height="24"><path d="M12.5 6a.75.75 0 0 0-.695.468l-3.25 8a.75.75 0 1 0 1.39.564L10.77 13h3.46l.825 2.032a.75.75 0 0 0 1.39-.564l-3.25-8A.75.75 0 0 0 12.5 6Zm-1.12 5.5 1.12-2.757 1.12 2.757h-2.24ZM4 4.5A2.5 2.5 0 0 1 6.5 2H18a2.5 2.5 0 0 1 2.5 2.5v14.25a.75.75 0 0 1-.75.75H5.5a1 1 0 0 0 1 1h13.25a.75.75 0 0 1 0 1.5H6.5A2.5 2.5 0 0 1 4 19.5v-15ZM5.5 18H19V4.5a1 1 0 0 0-1-1H6.5a1 1 0 0 0-1 1V18Z"/></svg>
